X:8283
T:Scollay's Reel
C:anon.
O:Ireland?
R:Reel
Z:Transcribed by David Barnert
F:http://abc.musicaviva.com/tunes/ireland/scollays-reel.abc
%Posted March 1st 2002 at abcusers by David Barnert as yet another example
%of tunes from the "Gilderoy" family.
M:C|
K:Em
E3FG3A|B2Bc BAGA|B2E2E2G2|FGAFD2F2|
EDEF GFGA|B2Bc BAGA|B2Bc BAGF|G2E2E4:|
efgeB2B2|g2g2B4|c2BAG2G2|FGAFD2F2|
EDEF GFGA|BABde2d2|B2Bc BAGF|G2E2E4:|
W:
W:
W:  From Musica Viva - http://www.musicaviva.com
W:  the Internet center for free sheet music downloads.

